X: 41725
T: Vals Efter Lasse I Lyby
R: waltz
M: 3/4
K: Eminor
B2 AB G2|F2 D2 B2|G2 B2 D2|GF GA B2|
B2 AB G2|F2 D2 B2|F2 B2 DF|E6:|
|:GF EF GA|B4 (3BAB|d2 B2 d2|B6|
GF EF GA|B4 (3BAB|d2 B2 d2|B6|
B2 AB G2|F2 D2 B2|F2 B2 DF|E6:|

